assets/crypto-bot.svg

<?xml version="1.0"?>
<svg width="400" height="400" xmlns="http://www.w3.org/2000/svg" xmlns:svg="http://www.w3.org/2000/svg" xmlns:xlink="http://www.w3.org/1999/xlink">
 <!-- Created with SVG-edit - https://github.com/SVG-Edit/svgedit-->
 <defs>
  <symbol height="278.86" id="svg_17" version="1.1" viewBox="0 0 138.30096109824444 139.43001089805875" width="276.6" xmlns="http://www.w3.org/2000/svg">
   <!-- svg-source:excalidraw -->
   <defs>
    <style class="style-fonts">@font-face {
        font-family: &quot;Virgil&quot;;
        src: url(&quot;https://excalidraw.com/Virgil.woff2&quot;);
      }
      @font-face {
        font-family: &quot;Cascadia&quot;;
        src: url(&quot;https://excalidraw.com/Cascadia.woff2&quot;);
      }</style>
   </defs>
   <g stroke-linecap="round" transform="translate(10 10) rotate(0 59.15048054912222 59.71500544902938)">
    <path d="m0,0l118.3,0l0,119.43l-118.3,0" fill="#000" stroke-width="0"/>
    <path d="m0,0c26.06,0 52.13,0 118.3,0m-118.3,0c33.18,0 66.35,0 118.3,0m0,0c0,45.16 0,90.31 0,119.43m0,-119.43c0,34.09 0,68.19 0,119.43m0,0c-27.33,0 -54.66,0 -118.3,0m118.3,0c-41.94,0 -83.87,0 -118.3,0m0,0c0,-41.52 0,-83.03 0,-119.43m0,119.43c0,-29.52 0,-59.04 0,-119.43" fill="none" stroke="#000000" stroke-width="4"/>
   </g>
   <g stroke-linecap="round" transform="translate(41.685178442992765 55.09562696154535) rotate(0 28.44450199657149 22.5042842046214)">
    <path d="m11.25,0m0,0c13.12,3.56 24.5,-0.31 34.39,0m-34.39,0c10.87,-1.2 19.18,-1.12 34.39,0m0,0c3.57,-1.58 12.36,7.51 11.25,11.25m-11.25,-11.25c10.2,4.57 8.78,1.56 11.25,11.25m0,0c-0.95,9.44 0.9,12.54 0,22.51m0,-22.51c1.38,5.4 0.62,10.28 0,22.51m0,0c1.49,10.39 -5.73,13.14 -11.25,11.25m11.25,-11.25c-3.66,5.35 -2.07,9.91 -11.25,11.25m0,0c-9.52,0.87 -11.66,1.03 -34.39,0m34.39,0c-14.61,-1.9 -26.47,0.58 -34.39,0m0,0c-6.67,1.08 -10.35,-6.32 -11.25,-11.25m11.25,11.25c-10.61,2.25 -12.4,-8.14 -11.25,-11.25m0,0c-1.11,-7.18 2.58,-16.09 0,-22.51m0,22.51c-1.26,-4.62 0.81,-10.03 0,-22.51m0,0c-1.88,-4.52 2.67,-7.87 11.25,-11.25m-11.25,11.25c-3.73,-8.83 5.9,-7.46 11.25,-11.25" fill="none" stroke="#ffffff" stroke-width="4"/>
   </g>
   <g stroke-linecap="round">
    <g transform="translate(58.31582512267414 54.229541855343996) rotate(0 12.901934850271573 -8.837827923927762)">
     <path d="m0.09,-0.75c0.43,-2.66 -1.52,-12.23 2.38,-14.9c3.9,-2.66 17,-3.66 21.02,-1.11c4.02,2.56 2.51,13.29 3.1,16.42m-27.92,1.82c0.8,-3.07 1.98,-16.16 5.93,-19.07c3.95,-2.92 14.02,-1.37 17.78,1.59c3.75,2.95 4.14,13.57 4.75,16.14" fill="none" stroke="#ffffff" stroke-width="4"/>
    </g>
   </g>
   <mask/>
   <g stroke-linecap="round" transform="translate(63.62362369595576 68.02315596652079) rotate(0 5.665945980059405 5.222526833720622)">
    <path d="m6.38,0.53c0.95,0.42 2.67,1.27 3.49,2.26c0.82,1 1.46,2.75 1.41,3.72c-0.05,0.98 -0.94,1.43 -1.71,2.15c-0.76,0.71 -1.77,1.98 -2.87,2.14c-1.11,0.15 -2.79,-0.39 -3.74,-1.2c-0.95,-0.82 -1.57,-2.49 -1.96,-3.68c-0.38,-1.19 -0.71,-2.46 -0.35,-3.49c0.36,-1.03 1.26,-2.26 2.53,-2.7c1.28,-0.45 4.25,-0.19 5.13,0.04c0.87,0.23 0.35,1.21 0.14,1.35m-0.38,-1.76c1.15,0.25 2.21,2.77 2.57,4.03c0.37,1.26 -0.25,2.59 -0.38,3.52c-0.13,0.93 0.63,1.53 -0.41,2.07c-1.04,0.53 -4.32,1.03 -5.81,1.12c-1.49,0.09 -2.44,0.02 -3.15,-0.58c-0.72,-0.6 -1.11,-1.86 -1.16,-3.01c-0.05,-1.15 0.24,-2.65 0.86,-3.86c0.61,-1.22 1.85,-2.83 2.84,-3.45c0.99,-0.61 2.52,-0.62 3.09,-0.23c0.58,0.39 0.25,2.4 0.38,2.57" fill="#ffffff" stroke-width="0"/>
    <path d="m4.14,-0.35c1.14,-0.42 3,0.81 3.97,1.44c0.96,0.63 1.13,1.65 1.82,2.34c0.68,0.68 2.22,0.84 2.27,1.75c0.05,0.92 -0.92,2.98 -1.97,3.75c-1.05,0.78 -2.95,0.87 -4.33,0.9c-1.38,0.04 -3.12,-0.09 -3.94,-0.71c-0.82,-0.61 -0.86,-1.94 -0.97,-2.98c-0.12,-1.04 -0.32,-2.4 0.27,-3.26c0.58,-0.87 2.85,-1.48 3.24,-1.94c0.4,-0.46 -0.79,-0.81 -0.89,-0.8m5.68,-0.5c1.41,0.16 2.24,1.44 2.33,2.46c0.08,1.02 -1.17,2.2 -1.8,3.66c-0.63,1.47 -1.1,4.42 -1.99,5.14c-0.89,0.72 -2.58,-0.57 -3.37,-0.8c-0.79,-0.22 -0.89,0.08 -1.38,-0.57c-0.49,-0.66 -1.28,-2.13 -1.57,-3.37c-0.28,-1.25 -0.62,-2.86 -0.13,-4.08c0.5,-1.22 1.98,-2.77 3.09,-3.24c1.11,-0.47 2.9,0.29 3.57,0.44c0.68,0.14 0.47,-0.03 0.45,0.44" fill="none" stroke="#fff" stroke-width="2"/>
   </g>
   <g stroke-linecap="round">
    <g transform="translate(69.93005856892705 75.2164441679106) rotate(0 -0.1437267623077787 6.613882327216743)">
     <path d="m-0.91,-0.66c-0.27,1.93 -0.48,11.04 -0.26,13.03m1.98,-10.76c0.05,2.06 0.27,10.53 0.11,12.27" fill="none" stroke="#fff" stroke-width="2"/>
    </g>
   </g>
   <mask/>
   <g stroke-linecap="round">
    <g transform="translate(71.21105890837134 76.20182673121417) rotate(0 0.5354015909961163 7.3840102302638115)">
     <path d="m1.02,0.79c0.02,2.57 -0.16,11.65 -0.22,13.81m-0.71,-14.43c-0.14,2.26 0.11,10.03 0.13,12.47" fill="none" stroke="#fff" stroke-width="2"/>
    </g>
   </g>
   <mask/>
   <g stroke-linecap="round">
    <g transform="translate(68.45198472397169 76.69451801286777) rotate(0 0.7403878579643788 6.291940471110138)">
     <path d="m0.37,-1.12c-0.03,2.47 -0.24,12.64 -0.28,14.83m-0.99,-12.81c0.33,2.26 2.7,9.24 3.28,11.26" fill="none" stroke="#fff" stroke-width="2"/>
    </g>
   </g>
   <mask/>
  </symbol>
 </defs>
 <g class="layer">
  <title>Layer 1</title>
  <use id="svg_18" transform="matrix(1 0 0 1 0 0) matrix(1 0 0 1 0 0) matrix(1 0 0 1 0 0) matrix(0.956274 0 0 0.956274 0 0)" x="0" xlink:href="#svg_17" y="0"/>
  <use id="svg_19" transform="matrix(1.63938 0 0 1.63938 -27.9737 -28.1162)" x="0" xlink:href="#svg_17" y="0"/>
 </g>
</svg>

<svg version="1.1" xmlns="http://www.w3.org/2000/svg" viewBox="0 0 138.30096109824444 139.43001089805875" width="276.6019221964889" height="278.8600217961175">
  <!-- svg-source:excalidraw -->
  
  <defs>
    <style class="style-fonts">
      @font-face {
        font-family: "Virgil";
        src: url("https://excalidraw.com/Virgil.woff2");
      }
      @font-face {
        font-family: "Cascadia";
        src: url("https://excalidraw.com/Cascadia.woff2");
      }
    </style>
    
  </defs>
  <g stroke-linecap="round" transform="translate(10 10) rotate(0 59.15048054912222 59.71500544902938)"><path d="M0 0 L118.3 0 L118.3 119.43 L0 119.43" stroke="none" stroke-width="0" fill="#000"></path><path d="M0 0 C26.06 0, 52.13 0, 118.3 0 M0 0 C33.18 0, 66.35 0, 118.3 0 M118.3 0 C118.3 45.16, 118.3 90.31, 118.3 119.43 M118.3 0 C118.3 34.09, 118.3 68.19, 118.3 119.43 M118.3 119.43 C90.97 119.43, 63.64 119.43, 0 119.43 M118.3 119.43 C76.36 119.43, 34.43 119.43, 0 119.43 M0 119.43 C0 77.91, 0 36.4, 0 0 M0 119.43 C0 89.91, 0 60.39, 0 0" stroke="#000000" stroke-width="4" fill="none"></path></g><g stroke-linecap="round" transform="translate(41.685178442992765 55.09562696154535) rotate(0 28.44450199657149 22.5042842046214)"><path d="M11.25 0 M11.25 0 C24.37 3.56, 35.75 -0.31, 45.64 0 M11.25 0 C22.12 -1.2, 30.43 -1.12, 45.64 0 M45.64 0 C49.21 -1.58, 58 7.51, 56.89 11.25 M45.64 0 C55.84 4.57, 54.42 1.56, 56.89 11.25 M56.89 11.25 C55.94 20.69, 57.79 23.79, 56.89 33.76 M56.89 11.25 C58.27 16.65, 57.51 21.53, 56.89 33.76 M56.89 33.76 C58.38 44.15, 51.16 46.9, 45.64 45.01 M56.89 33.76 C53.23 39.11, 54.82 43.67, 45.64 45.01 M45.64 45.01 C36.12 45.88, 33.98 46.04, 11.25 45.01 M45.64 45.01 C31.03 43.11, 19.17 45.59, 11.25 45.01 M11.25 45.01 C4.58 46.09, 0.9 38.69, 0 33.76 M11.25 45.01 C0.64 47.26, -1.15 36.87, 0 33.76 M0 33.76 C-1.11 26.58, 2.58 17.67, 0 11.25 M0 33.76 C-1.26 29.14, 0.81 23.73, 0 11.25 M0 11.25 C-1.88 6.73, 2.67 3.38, 11.25 0 M0 11.25 C-3.73 2.42, 5.9 3.79, 11.25 0" stroke="#ffffff" stroke-width="4" fill="none"></path></g><g stroke-linecap="round"><g transform="translate(58.31582512267414 54.229541855343996) rotate(0 12.901934850271573 -8.837827923927762)"><path d="M0.09 -0.75 C0.52 -3.41, -1.43 -12.98, 2.47 -15.65 C6.37 -18.31, 19.47 -19.31, 23.49 -16.76 C27.51 -14.2, 26 -3.47, 26.59 -0.34 M-1.33 1.48 C-0.53 -1.59, 0.65 -14.68, 4.6 -17.59 C8.55 -20.51, 18.62 -18.96, 22.38 -16 C26.13 -13.05, 26.52 -2.43, 27.13 0.14" stroke="#ffffff" stroke-width="4" fill="none"></path></g></g><mask></mask><g stroke-linecap="round" transform="translate(63.62362369595576 68.02315596652079) rotate(0 5.665945980059405 5.222526833720622)"><path d="M6.38 0.53 C7.33 0.95, 9.05 1.8, 9.87 2.79 C10.69 3.79, 11.33 5.54, 11.28 6.51 C11.23 7.49, 10.34 7.94, 9.57 8.66 C8.81 9.37, 7.8 10.64, 6.7 10.8 C5.59 10.95, 3.91 10.41, 2.96 9.6 C2.01 8.78, 1.39 7.11, 1 5.92 C0.62 4.73, 0.29 3.46, 0.65 2.43 C1.01 1.4, 1.91 0.17, 3.18 -0.27 C4.46 -0.72, 7.43 -0.46, 8.31 -0.23 C9.18 0, 8.66 0.98, 8.45 1.12 M8.07 -0.64 C9.22 -0.39, 10.28 2.13, 10.64 3.39 C11.01 4.65, 10.39 5.98, 10.26 6.91 C10.13 7.84, 10.89 8.44, 9.85 8.98 C8.81 9.51, 5.53 10.01, 4.04 10.1 C2.55 10.19, 1.6 10.12, 0.89 9.52 C0.17 8.92, -0.22 7.66, -0.27 6.51 C-0.32 5.36, -0.03 3.86, 0.59 2.65 C1.2 1.43, 2.44 -0.18, 3.43 -0.8 C4.42 -1.41, 5.95 -1.42, 6.52 -1.03 C7.1 -0.64, 6.77 1.37, 6.9 1.54" stroke="none" stroke-width="0" fill="#ffffff"></path><path d="M4.14 -0.35 C5.28 -0.77, 7.14 0.46, 8.11 1.09 C9.07 1.72, 9.24 2.74, 9.93 3.43 C10.61 4.11, 12.15 4.27, 12.2 5.18 C12.25 6.1, 11.28 8.16, 10.23 8.93 C9.18 9.71, 7.28 9.8, 5.9 9.83 C4.52 9.87, 2.78 9.74, 1.96 9.12 C1.14 8.51, 1.1 7.18, 0.99 6.14 C0.87 5.1, 0.67 3.74, 1.26 2.88 C1.84 2.01, 4.11 1.4, 4.5 0.94 C4.9 0.48, 3.71 0.13, 3.61 0.14 M9.29 -0.36 C10.7 -0.2, 11.53 1.08, 11.62 2.1 C11.7 3.12, 10.45 4.3, 9.82 5.76 C9.19 7.23, 8.72 10.18, 7.83 10.9 C6.94 11.62, 5.25 10.33, 4.46 10.1 C3.67 9.88, 3.57 10.18, 3.08 9.53 C2.59 8.87, 1.8 7.4, 1.51 6.16 C1.23 4.91, 0.89 3.3, 1.38 2.08 C1.88 0.86, 3.36 -0.69, 4.47 -1.16 C5.58 -1.63, 7.37 -0.87, 8.04 -0.72 C8.72 -0.58, 8.51 -0.75, 8.49 -0.28" stroke="#fff" stroke-width="2" fill="none"></path></g><g stroke-linecap="round"><g transform="translate(69.93005856892705 75.2164441679106) rotate(0 -0.1437267623077787 6.613882327216743)"><path d="M-0.91 -0.66 C-1.18 1.27, -1.39 10.38, -1.17 12.37 M0.81 1.61 C0.86 3.67, 1.08 12.14, 0.92 13.88" stroke="#fff" stroke-width="2" fill="none"></path></g></g><mask></mask><g stroke-linecap="round"><g transform="translate(71.21105890837134 76.20182673121417) rotate(0 0.5354015909961163 7.3840102302638115)"><path d="M1.02 0.79 C1.04 3.36, 0.86 12.44, 0.8 14.6 M0.09 0.17 C-0.05 2.43, 0.2 10.2, 0.22 12.64" stroke="#fff" stroke-width="2" fill="none"></path></g></g><mask></mask><g stroke-linecap="round"><g transform="translate(68.45198472397169 76.69451801286777) rotate(0 0.7403878579643788 6.291940471110138)"><path d="M0.37 -1.12 C0.34 1.35, 0.13 11.52, 0.09 13.71 M-0.9 0.9 C-0.57 3.16, 1.8 10.14, 2.38 12.16" stroke="#fff" stroke-width="2" fill="none"></path></g></g><mask></mask></svg>
